X:1
T:Muse of poetry
T:Muse of poetry
T:J. K. F. Fischer Muse of poetry, erotic poetry in particular (Erato)
T:Erato
T: Praeludium
T:Allemande
T:by Mutopia-2013/02/21-128 - pubblico dominio
T:by Mutopia-2013/02/21-128 - pubblico dominio
C:J. K. F. Fischer
Z:by Mutopia-2013/02/21-128 - pubblico dominio
%%score { ( 1 4 5 ) | ( 2 3 ) }
L:1/8
M:4/4
K:G
V:1 treble nm="Harpsichord" snm="Hch."
V:4 treble 
V:5 treble 
V:2 bass 
V:3 bass 
V:1
 z/[Q:1/4=60] e/B/A/ G/B/G/F/ E/^D/E/F/ G/F/G/A/ | B2- B/^d/e/f/ g>f e2- | %2
w: ||
 e/e/d/^c/ d2- d/d/=c/B/ c>c | B2- B/A/B/c/ d/g/d/c/ B/d/c/B/ | A2 A/d/A/F/ G2- G/G/F/E/ | %5
w: |||
 F/A/F/D/[I:staff +1] A,/D/A,/F,/[I:staff -1] z/ D/D/A,/ D/F/D/A,/ | %6
w: |
 z/ D/D/F/ F/A/A/c/ c/a/a/f/ f/c/c/A/ | B4 B/B/A/G/ A/c/E/G/ | F2 d2- d/d/c/B/ c/e/G/B/ | %9
w: |||
 A/E/^C/E/ A,2 z/ =c/B/A/ B/d/G/B/ | A2 G2 G/G/F/E/ F2- | F/F/G/A/ G2- G/G/=F/E/ F/E/A/^F/ | %12
w: |||
 ^D/F/D/B,/ B2- B/B/A/G/ A2- | A/A/G/F/ G>G F2 F>F | E8 |][M:4/4][Q:1/4=54] e/ |: %16
w: ||||
 !arpeggio!e>B G/B/E/G/ A2- A/A/G/F/ | G3 [B,EG] [CEA]e/c/ c/A/A/E/ | F/D/F/A/ d2- d/d/c/B/ c>c | %19
w: |||
 [DGB]>B A>A G/E/c- cB- |1 B/A/G/A/ TA>B B3 z/ e/ :|2 B/A/G/A/ TA>B B3 z/ B/ |: %22
w: |||
 A2- A/F/G/E/ F/d/A/B/ cB/A/ | B/G/B/d/ =f>f e/G/A/G/ e/G/A/G/ | %24
w: ||
 !courtesy!^F/c/B/A/ BA/G/ G2 z/ B/c/B/ | A/e/e/A/ A/f/f/A/ G2 !courtesy!=C2 | %26
w: ||
 D2 z/ B/B/D/ E3 [!courtesy!^DF] | G/F/G/A/ |1 [EG][^DF] E3 z/ B/ :|2 E3 |] %30
w: |||î•|
V:2
 E,8 | z/ E,/B,,/A,,/ G,,/B,,/G,,/F,,/ E,,/^D,/E,/F,/ G,/F,/G,/E,/ | B,3 B, E,2 E,,F,, | %3
 G,,/G,/D,/C,/ B,,/D,/B,,/A,,/ G,,3 G, | ^C/E/C/A,/ D2- D/D/C/B,/ C2 | D,4 D,4 | F,8 | G,4 C,4 | %8
 C/C/B,/A,/ B,/D/F,/A,/ G,4- | G,2- G,/G,/F,/E,/ F,2 G,2 | %10
 F,/C/B,/A,/ B,/D/G,/B,/ A,2 A,/A,/B,/C/ | B,2 B,/[I:staff -1]E/=D/E/[I:staff +1] A,4 | %12
 F,2 G,2- G,E, C2 | B,4- B,2- B,/B,/A,- | A,/A,/B,/A,/ ^G,/A,/F,/A,/ G,4 |][M:4/4] z/ |: %16
 [E,G,B,]3 [E,G,] z/ F,/A,/C/ B,2 | E,>B,, G,,/B,,/E,,/E,/ C,3 A, | D,2 z/ D,/G,/B,/ E,3 F, | %19
 G,/D,/G,,- G,,F,, E,,>E, !courtesy!=D,/!courtesy!=C,/D,/B,,/ |1 C,3 C, z z/ D,/ B,/A,/G,/>F,/ :|2 %21
 C,3 C, z z/ F,/ B,2 |: C,3 C, D,2 E,F, | D2 CD C3 C, | A,G,- G,F, G,>D, G,,G,- | %25
 G,2 F,2 B,2 A,2- | A,/A,/G,/F,/ G,2 E,2 C,/C,/B,,/A,,/ | B,,A,, |1 %28
 B,,B,, E,>B,, E,,/B,,/E,/!courtesy!=D,/ :|2 E,>B,, E,, |] %30
V:3
 z2 z/ E/B,/A,/ G,/B,/G,/F,/ E,/[I:staff -1]^D/E/F/ | x8 | x8 | x8 |[I:staff +1] G,2 F,2 E,4 | %5
 D2 x6 | x8 | x8 | D,4 E,4 | ^C,4 D,4 | D,8 | ^D,2 E,2 A,,4- | A,,2 G,,2 C,2- C,/C,/B,,/A,,/ | %13
 B,,4- B,,4 | [E,,E,]8 |][M:4/4] x/ |: x4 E,2 ^D,2 | x7 C, | C,2 B,,2 x4 | x8 |1 x4 B,,3 z :|2 %21
 x4 B,,2 z/ B,,/E,/D,/ |: x8 | G,2 A,B, C3 x | D,G,, D,2 x4 | ^C,2 ^D,2 E,2 A,,2 | %26
 B,,3 B,, C,2- x2 | x2 |1 x6 :|2 x3 |] %30
V:4
 x8 | G2- G/F/G/A/ B>A G2 | F2- F/F/G/A/ G2 G/E/D | D2 D/F/G/A/ B>A G[I:staff +1]D | x8 | x8 | x8 | %7
[I:staff -1] z/ G/G/D/ D/B,/B,/D/ E2[I:staff +1] C2- | x8 | x8 | x8 | x4[I:staff -1] C4 | %12
 B,2 z/ ^D/E/F/ E2- EF | ^D2 D/D/E- E/^C/D/E/ D>D | x8 |][M:4/4] x/ |: !arpeggio![GB]3/2 x13/2 | %17
 z/ E/ B,2 x5 | x6 z/ E/D | x2 z/ ^C/^D/ z/ E2 F>G |1 E4 z/ F/^D x2 :|2 E4 z/ F/^D- D3/2 z/ |: %22
 z/ E/^C/E/[I:staff +1] A,2- A,F,[I:staff -1] z/[I:staff +1] G,/D- | %23
 x2[I:staff -1] z/ A/G/ z/ x3 E | x4 z/ D/B, x2 | c'4 z/ E/E/B,/ z/ A/A/F/ | %26
 B,4- B,/B,/A,/G,/ A,C | EE |1 B,>A, A,/F,/G,- G,3/2 z/ :|2 A,/F,/^G,- G, |] %30
V:5
 x8 | x8 | x8 | x8 | x8 | x8 | x8 | x8 | x8 | x8 | x8 | x8 | x8 | x8 | x8 |][M:4/4] x/ |: x8 | x8 | %18
 x8 | x8 |1 x8 :|2 x8 |: x8 | x8 | x8 | x8 | x8 | B,2- |1 x6 :|2 x3 |] %30

